public/images/footer/twitter.svg

<svg width="37" height="37" viewBox="0 0 37 37" fill="none" xmlns="http://www.w3.org/2000/svg">
<rect x="1" y="1" width="35" height="35" rx="17.5" stroke="white"/>
<path d="M23.7715 15.7384C23.7788 15.8578 23.7788 15.9771 23.7788 16.0975C23.7788 19.7675 21.3023 24 16.7738 24V23.9978C15.4361 24 14.1261 23.5677 13 22.7527C13.1945 22.7791 13.39 22.7923 13.586 22.7928C14.6946 22.7939 15.7715 22.3743 16.6436 21.6016C15.5901 21.5791 14.6663 20.8042 14.3436 19.6729C14.7126 19.7532 15.0929 19.7367 15.4551 19.625C14.3065 19.3632 13.4802 18.2248 13.4802 16.9027V16.8675C13.8224 17.0825 14.2056 17.2019 14.5976 17.2151C13.5158 16.3995 13.1823 14.776 13.8356 13.5067C15.0856 15.2418 16.9298 16.2966 18.9096 16.4083C18.7112 15.4436 18.9822 14.4328 19.6218 13.7547C20.6134 12.7032 22.1729 12.7571 23.1051 13.8751C23.6564 13.7525 24.1849 13.5243 24.6685 13.2009C24.4847 13.8438 24.1001 14.3899 23.5862 14.7369C24.0742 14.672 24.551 14.5246 25 14.2997C24.6695 14.8585 24.2531 15.3452 23.7715 15.7384Z" fill="white"/>
</svg>

<svg xmlns="http://www.w3.org/2000/svg" width="37" height="37" fill="none"><rect width="35" height="35" x="1" y="1" stroke="#fff" rx="17.5"/><path fill="#fff" d="M23.772 15.738q.009.18.007.36c0 3.67-2.477 7.902-7.005 7.902v-.002c-1.338.002-2.648-.43-3.774-1.245q.292.04.586.04c1.109 0 2.185-.419 3.058-1.191-1.054-.023-1.978-.798-2.3-1.93.369.081.749.065 1.111-.047-1.149-.262-1.975-1.4-1.975-2.722v-.035c.342.215.726.334 1.118.347-1.082-.816-1.416-2.439-.762-3.708 1.25 1.735 3.094 2.79 5.074 2.901-.199-.964.072-1.975.712-2.653.991-1.052 2.55-.998 3.483.12a4.6 4.6 0 0 0 1.564-.674c-.184.643-.569 1.189-1.083 1.536A4.5 4.5 0 0 0 25 14.3a5.4 5.4 0 0 1-1.229 1.438"/></svg>
